build/images/icons/search-icon.svg

<svg width="14" height="14" viewBox="0 0 14 14" fill="none" xmlns="http://www.w3.org/2000/svg">
<path d="M13.9042 12.9798L11.0362 10.1118C11.9006 9.04453 12.421 7.68774 12.421 6.21051C12.421 2.78605 9.63494 0 6.21048 0C2.78602 0 0 2.78605 0 6.21051C0 9.63497 2.78606 12.421 6.21052 12.421C7.68774 12.421 9.04453 11.9006 10.1118 11.0362L12.9798 13.9043C13.1075 14.0319 13.3144 14.0319 13.4421 13.9043L13.9043 13.4421C14.0319 13.3144 14.0319 13.1075 13.9042 12.9798ZM6.21052 11.1135C3.50683 11.1135 1.30748 8.9142 1.30748 6.21051C1.30748 3.50683 3.50683 1.30748 6.21052 1.30748C8.9142 1.30748 11.1135 3.50683 11.1135 6.21051C11.1135 8.9142 8.9142 11.1135 6.21052 11.1135Z" fill="#BED8E8"/>
</svg>

<svg width="14" height="14" fill="none" xmlns="http://www.w3.org/2000/svg"><path d="m13.904 12.98-2.868-2.868a6.179 6.179 0 0 0 1.385-3.901A6.218 6.218 0 0 0 6.211 0 6.218 6.218 0 0 0 0 6.21a6.218 6.218 0 0 0 6.21 6.211c1.478 0 2.835-.52 3.902-1.385l2.868 2.868a.327.327 0 0 0 .462 0l.462-.462a.327.327 0 0 0 0-.462Zm-7.693-1.867a4.908 4.908 0 0 1-4.904-4.902c0-2.704 2.2-4.904 4.904-4.904 2.703 0 4.902 2.2 4.902 4.904 0 2.703-2.199 4.902-4.902 4.902Z" fill="#BED8E8"/></svg>
